material/.icons/material/trademark.svg

<svg xmlns="http://www.w3.org/2000/svg" viewBox="0 0 24 24"><path d="M9.8 8.44H6.87V16H4.89V8.44H2V7h7.8v1.44M13.5 7l2.46 6.5L18.41 7H21v9h-2v-2.5l.22-4.26L16.63 16h-1.35L12.7 9.25l.2 4.25V16h-1.97V7h2.57z"/></svg>

<?xml version="1.0" encoding="UTF-8"?><!DOCTYPE svg PUBLIC "-//W3C//DTD SVG 1.1//EN" "http://www.w3.org/Graphics/SVG/1.1/DTD/svg11.dtd"><svg xmlns="http://www.w3.org/2000/svg" xmlns:xlink="http://www.w3.org/1999/xlink" version="1.1" id="mdi-trademark" width="24" height="24" viewBox="0 0 24 24"><path d="M9.8,8.44H6.87V16H4.89V8.44H2V7H9.8V8.44M13.5,7L15.96,13.5L18.41,7H21V16H19V13.5L19.22,9.24L16.63,16H15.28L12.7,9.25L12.9,13.5V16H10.93V7H13.5Z" /></svg>
